X:16
T:What'll We Do, When The Wattle Blooms Again?
C:Reginald Stoneham 1879-1942 
O:Australia
L:1/4
Q:1/4=160
M:2/2
I:linebreak $
K:Gmaj
[I:MIDI=program 68]G, | G G G E | =F3 G, | =F2 F2 | E3 G, | G G G E | D3 D | E2 F2 |$ G3 G, | =F2 E F | E D2 E | 
w:When|win- ters gloom is|o'er and|skies are|blue, and|all the world's in|love and|I love|you. When|we have for-|gott- en the|
C D ^D E- | E3 z | D E F G- | G D2 B, |$ D C B, A, | D3 z || E ^D E =D- | D C2 A, | C B, A, C | B,3 z | 
w:cold and the rain.||Whal- t'll we do|* when the|wa- ttle blooms a-|gain?|Wha- t'll we do|* when the|wa- ttle blooms a-|gain|
A,2 z2 | B,2 G,2 |$ A,2 E2 | z2 G, G, | E2 E2 | D2 C2 | B,2 C2 | D3 z | D4 | A,4 | E4 | D4 | G,2 A,2 |$ 
w:We'll|go a|roa- ming|by the|ri- vers|fringe of|wav- ing|gold|In|the|gloa-|ming.|Heart to|
B,2 G,2 | C2 D E- | E3 z | A,2 A, B, | ^C2 A,2 | E2 _E D- | D3 z | E2 ^D E |$ G2 A E | E D ^C E | 
w:heart and|hand to hand||Al- ways to|love and|un- der- stand||That's what we'll|do when the|wa- ttle blooms a-|
D2 A,2 | E2 D2 | G2 E2 |1 C4- || C z z2 :|2 C4- || C2 z2 |] 
w:gain. And|I come|back to|you!||||

